icons/folder_type_js.svg

<svg xmlns="http://www.w3.org/2000/svg" viewBox="0 0 32 32"><path d="M27.5 5.5h-9.3l-2.1 4.2H4.4v16.8h25.2v-21Zm0 4.2h-8.2l1.1-2.1h7.1Z" style="fill:#bfb555"/><path d="M23.013 26.479a3.268 3.268 0 0 0 2.961 1.821c1.244 0 2.033-.622 2.033-1.481 0-1.025-.815-1.393-2.181-1.989l-.753-.324c-2.155-.92-3.61-2.068-3.61-4.512 0-2.252 1.752-3.96 4.38-3.96a4.433 4.433 0 0 1 4.267 2.4l-2.33 1.5a2.041 2.041 0 0 0-1.936-1.288 1.305 1.305 0 0 0-1.43 1.167q-.006.06-.007.121c0 .876.561 1.262 1.84 1.822l.753.324c2.549 1.1 3.986 2.208 3.986 4.713 0 2.7-2.12 4.179-4.967 4.179a5.756 5.756 0 0 1-5.433-3.072Zm-10.583.263c.473.876.876 1.542 1.927 1.542s1.6-.385 1.6-1.884V16.229h3v10.215c0 3.1-1.822 4.521-4.477 4.521a4.652 4.652 0 0 1-4.494-2.742Z" style="fill:#f5de19"/></svg>

<svg xmlns="http://www.w3.org/2000/svg" viewBox="0 0 32 32"><title>folder_type_js</title><path d="M27.5,5.5H18.2L16.1,9.7H4.4V26.5H29.6V5.5Zm0,4.2H19.3l1.1-2.1h7.1Z" style="fill:#bfb555"/><path d="M23.013,26.479A3.268,3.268,0,0,0,25.974,28.3c1.244,0,2.033-.622,2.033-1.481,0-1.025-.815-1.393-2.181-1.989l-.753-.324c-2.155-.92-3.61-2.068-3.61-4.512,0-2.252,1.752-3.96,4.38-3.96a4.433,4.433,0,0,1,4.267,2.4l-2.33,1.5a2.041,2.041,0,0,0-1.936-1.288,1.305,1.305,0,0,0-1.43,1.167q-.006.06-.007.121c0,.876.561,1.262,1.84,1.822l.753.324c2.549,1.1,3.986,2.208,3.986,4.713,0,2.7-2.12,4.179-4.967,4.179A5.756,5.756,0,0,1,20.586,27.9Zm-10.583.263c.473.876.876,1.542,1.927,1.542s1.6-.385,1.6-1.884V16.229h3V26.444c0,3.1-1.822,4.521-4.477,4.521a4.652,4.652,0,0,1-4.494-2.742Z" style="fill:#f5de19"/></svg>
